static/images/mobile/copyright/wikipedia-tagline-chy.svg

<svg width="120" height="10" viewBox="0 0 120 10" fill="none" xmlns="http://www.w3.org/2000/svg">
<path d="M3.54348 5.64509C3.23062 5.64509 3.1354 5.61788 3.18981 5.46826L4.56368 2.01319H4.59088L5.91034 5.64509H3.54348ZM2.0744 8.42002L2.82254 6.44765C2.89056 6.27081 2.97217 6.2164 3.29864 6.2164H6.12798L6.95774 8.51524C7.14818 9.08655 6.59047 9.03214 5.95115 9.07295C5.86953 9.15457 5.86953 9.44022 5.95115 9.52184C6.45444 9.50823 7.20259 9.49463 7.73309 9.49463C8.2908 9.49463 8.78049 9.50823 9.28379 9.52184C9.36541 9.44022 9.36541 9.15457 9.28379 9.07295C8.75329 9.03214 8.3044 9.03214 8.05955 8.32481L5.27102 0.952184C5.1622 0.693734 5.09418 0.544106 4.90375 0.544106C4.69971 0.544106 4.59088 0.66653 4.44126 1.0338L1.42147 8.10716C1.0542 8.95053 0.646124 9.03214 0.0612117 9.07295C-0.0204039 9.15457 -0.0204039 9.44022 0.0612117 9.52184C0.564508 9.50823 0.741343 9.49463 1.27184 9.49463C1.82955 9.49463 2.50968 9.50823 3.01298 9.52184C3.0946 9.44022 3.0946 9.15457 3.01298 9.07295C2.49608 9.04575 1.85676 8.99133 2.0744 8.42002ZM10.9514 5.65869C11.2098 4.1216 12.162 3.99917 12.4885 3.99917C13.0054 3.99917 13.6175 4.28483 13.6175 5.42745C13.6175 5.54987 13.5631 5.61788 13.4135 5.61788L10.9514 5.65869ZM14.5153 8.22959C14.012 8.74649 13.6175 8.96413 12.8285 8.96413C12.3389 8.96413 11.7675 8.67847 11.3459 7.98474C11.0738 7.53585 10.9106 6.91013 10.9106 6.12118L14.5289 6.14839C14.6921 6.14839 14.7873 6.06677 14.7873 5.91714C14.7873 4.77452 14.3792 3.55028 12.4885 3.55028C11.3051 3.55028 9.76796 4.67931 9.76796 6.7469C9.76796 7.50865 9.9584 8.24319 10.4073 8.76009C10.8698 9.3042 11.5091 9.63066 12.4885 9.63066C13.5223 9.63066 14.2568 9.15457 14.8009 8.44723C14.7601 8.3112 14.6785 8.24319 14.5153 8.22959ZM16.0016 7.61747C16.056 8.284 16.0968 8.92332 16.0968 9.49463C16.2328 9.46743 16.3688 9.45382 16.4369 9.45382C16.5321 9.45382 16.6137 9.45383 16.7089 9.48103C17.0762 9.57625 17.4435 9.63066 17.9467 9.63066C18.7085 9.63066 20.1096 9.26339 20.1096 7.91673C20.1096 6.99175 19.4294 6.46125 18.5181 6.10758C17.7019 5.79472 17.1578 5.59068 17.1578 4.84254C17.1578 4.28483 17.6475 3.97197 18.11 3.97197C18.4092 3.97197 19.1982 4.08079 19.375 5.23701C19.4566 5.31863 19.7287 5.30502 19.8103 5.22341C19.8103 4.73371 19.8783 4.23042 19.8919 3.78153C19.4702 3.71352 18.8173 3.52308 18.11 3.52308C17.1034 3.52308 16.192 4.17601 16.192 5.04657C16.192 6.03957 16.6409 6.46125 17.6883 6.89653C18.8037 7.37262 19.0758 7.64468 19.0758 8.22959C19.0758 8.89612 18.4228 9.18177 17.9195 9.18177C17.389 9.18177 17.0898 9.00494 16.9538 8.85531C16.6273 8.54245 16.5049 7.94393 16.4233 7.60387C16.3416 7.52225 16.0832 7.53586 16.0016 7.61747ZM21.1408 3.65911C20.9504 3.65911 20.896 3.82234 20.896 3.93116V4.10799C20.896 4.17601 20.9096 4.18961 20.964 4.18961H21.7665V8.284C21.7665 9.24979 22.1882 9.63066 22.8139 9.63066C23.4397 9.63066 24.1198 9.3314 24.6503 8.73289C24.6231 8.59686 24.5415 8.51524 24.4054 8.50164C24.0518 8.77369 23.6437 8.88252 23.29 8.88252C22.9228 8.88252 22.8411 8.47444 22.8411 7.63107V4.18961H24.2558C24.3918 4.18961 24.5823 4.1352 24.5823 4.01278V3.74072C24.5823 3.68631 24.5415 3.65911 24.4735 3.65911H22.8411V3.1286C22.8411 2.24443 22.8956 1.70033 22.8956 1.70033C22.8956 1.60511 22.8411 1.5643 22.7187 1.5643L21.9298 1.93157C21.8482 1.97238 21.7257 1.99959 21.7393 2.09481C21.7665 2.40767 21.7665 2.53009 21.7665 3.65911H21.1408ZM25.4176 6.70609C25.4176 8.09356 26.3561 9.63066 28.2741 9.63066C30.3009 9.63066 31.1579 7.94393 31.1579 6.58367C31.1579 5.169 30.4097 3.52308 28.3013 3.52308C26.465 3.52308 25.4176 4.97856 25.4176 6.70609ZM28.1517 3.97197C29.3215 3.97197 29.988 5.01937 29.988 7.01895C29.988 8.8145 29.1583 9.18177 28.519 9.18177C27.1043 9.18177 26.5874 7.44064 26.5874 6.39323C26.5874 5.20981 27.0091 3.97197 28.1517 3.97197ZM34.2988 5.03297C34.8293 4.51607 35.2646 4.23042 35.6863 4.23042C36.2032 4.23042 36.584 4.55688 36.584 5.46826V7.83511C36.584 8.95053 36.4752 9.01854 35.7407 9.07295C35.6727 9.15457 35.6727 9.44022 35.7407 9.52184C36.312 9.50823 36.584 9.49463 37.1281 9.49463C37.6859 9.49463 37.8763 9.50823 38.4612 9.52184C38.5292 9.44022 38.5292 9.15457 38.4612 9.07295C37.7811 9.01854 37.6586 8.95053 37.6586 7.83511V5.67229C37.6586 5.48186 37.6587 5.29142 37.645 5.12819C38.298 4.40725 38.8285 4.23042 39.359 4.23042C39.8759 4.23042 40.2023 4.52968 40.2023 5.44105V7.83511C40.2023 8.95053 40.0663 9.01854 39.359 9.07295C39.291 9.15457 39.291 9.44022 39.359 9.52184C39.9303 9.50823 40.2023 9.49463 40.7464 9.49463C41.3042 9.49463 41.5626 9.50823 42.1475 9.52184C42.2155 9.44022 42.2155 9.15457 42.1475 9.07295C41.3994 9.01854 41.2769 8.95053 41.2769 7.83511V5.6859C41.2769 4.47526 41.0457 3.52308 39.8487 3.52308C39.1413 3.52308 38.3932 3.78153 37.6859 4.52968C37.645 4.57048 37.5634 4.6385 37.5362 4.52968C37.4002 3.97197 36.8833 3.52308 36.176 3.52308C35.387 3.52308 34.7885 3.99917 34.19 4.62489C34.1356 4.6793 34.054 4.81533 34.054 4.62489C34.054 4.21682 34.122 3.59109 34.122 3.59109C34.122 3.52308 34.0676 3.48227 33.9587 3.48227C33.5643 3.6319 33.0202 3.75433 32.0816 3.87675C32.0544 3.95836 32.0816 4.17601 32.1088 4.25762C32.8433 4.33924 32.993 4.39365 32.993 5.1826V7.83511C32.993 8.95053 32.8161 9.01854 32.068 9.07295C31.9864 9.15457 31.9864 9.44022 32.068 9.52184C32.6257 9.50823 32.9521 9.49463 33.5371 9.49463C34.0676 9.49463 34.2988 9.50823 34.8701 9.52184C34.9517 9.44022 34.9517 9.15457 34.8701 9.07295C34.19 9.00494 34.0676 8.95053 34.0676 7.83511V5.60428C34.0676 5.31863 34.19 5.1554 34.2988 5.03297ZM44.0015 5.65869C44.26 4.1216 45.2121 3.99917 45.5386 3.99917C46.0555 3.99917 46.6676 4.28483 46.6676 5.42745C46.6676 5.54987 46.6132 5.61788 46.4636 5.61788L44.0015 5.65869ZM47.5654 8.22959C47.0621 8.74649 46.6676 8.96413 45.8787 8.96413C45.389 8.96413 44.8177 8.67847 44.396 7.98474C44.1239 7.53585 43.9607 6.91013 43.9607 6.12118L47.579 6.14839C47.7422 6.14839 47.8375 6.06677 47.8375 5.91714C47.8375 4.77452 47.4294 3.55028 45.5386 3.55028C44.3552 3.55028 42.8181 4.67931 42.8181 6.7469C42.8181 7.50865 43.0085 8.24319 43.4574 8.76009C43.9199 9.3042 44.5592 9.63066 45.5386 9.63066C46.5724 9.63066 47.307 9.15457 47.8511 8.44723C47.8102 8.3112 47.7286 8.24319 47.5654 8.22959ZM50.9833 5.03297C51.5138 4.51607 51.9491 4.23042 52.3707 4.23042C52.8876 4.23042 53.2685 4.55688 53.2685 5.46826V7.83511C53.2685 8.95053 53.1597 9.01854 52.4251 9.07295C52.3571 9.15457 52.3571 9.44022 52.4251 9.52184C52.9965 9.50823 53.2685 9.49463 53.8126 9.49463C54.3703 9.49463 54.5608 9.50823 55.1457 9.52184C55.2137 9.44022 55.2137 9.15457 55.1457 9.07295C54.4655 9.01854 54.3431 8.95053 54.3431 7.83511V5.67229C54.3431 5.48186 54.3431 5.29142 54.3295 5.12819C54.9824 4.40725 55.5129 4.23042 56.0434 4.23042C56.5603 4.23042 56.8868 4.52968 56.8868 5.44105V7.83511C56.8868 8.95053 56.7508 9.01854 56.0434 9.07295C55.9754 9.15457 55.9754 9.44022 56.0434 9.52184C56.6148 9.50823 56.8868 9.49463 57.4309 9.49463C57.9886 9.49463 58.2471 9.50823 58.832 9.52184C58.9 9.44022 58.9 9.15457 58.832 9.07295C58.0838 9.01854 57.9614 8.95053 57.9614 7.83511V5.6859C57.9614 4.47526 57.7302 3.52308 56.5331 3.52308C55.8258 3.52308 55.0777 3.78153 54.3703 4.52968C54.3295 4.57048 54.2479 4.6385 54.2207 4.52968C54.0847 3.97197 53.5678 3.52308 52.8604 3.52308C52.0715 3.52308 51.473 3.99917 50.8745 4.62489C50.82 4.6793 50.7384 4.81533 50.7384 4.62489C50.7384 4.21682 50.8064 3.59109 50.8064 3.59109C50.8064 3.52308 50.752 3.48227 50.6432 3.48227C50.2487 3.6319 49.7046 3.75433 48.766 3.87675C48.7388 3.95836 48.766 4.17601 48.7932 4.25762C49.5278 4.33924 49.6774 4.39365 49.6774 5.1826V7.83511C49.6774 8.95053 49.5006 9.01854 48.7524 9.07295C48.6708 9.15457 48.6708 9.44022 48.7524 9.52184C49.3101 9.50823 49.6366 9.49463 50.2215 9.49463C50.752 9.49463 50.9833 9.50823 51.5546 9.52184C51.6362 9.44022 51.6362 9.15457 51.5546 9.07295C50.8744 9.00494 50.752 8.95053 50.752 7.83511V5.60428C50.752 5.31863 50.8744 5.1554 50.9833 5.03297ZM59.557 6.70609C59.557 8.09356 60.4955 9.63066 62.4135 9.63066C64.4403 9.63066 65.2973 7.94393 65.2973 6.58367C65.2973 5.169 64.5491 3.52308 62.4407 3.52308C60.6044 3.52308 59.557 4.97856 59.557 6.70609ZM62.2911 3.97197C63.4609 3.97197 64.1274 5.01937 64.1274 7.01895C64.1274 8.8145 63.2977 9.18177 62.6584 9.18177C61.2437 9.18177 60.7268 7.44064 60.7268 6.39323C60.7268 5.20981 61.1485 3.97197 62.2911 3.97197ZM68.2231 4.62489C67.883 4.10799 68.0191 4.1624 68.6176 4.08079C68.6992 3.99917 68.6992 3.71352 68.6176 3.6319C68.1143 3.6455 67.6518 3.65911 67.2437 3.65911C66.8356 3.65911 66.5772 3.6455 66.0739 3.6319C65.9923 3.71352 65.9923 3.99917 66.0739 4.08079C66.5364 4.1216 66.9037 4.35284 67.2981 4.91055L68.4816 6.63808C68.5088 6.70609 68.5632 6.76051 68.4952 6.84212L67.3525 8.3112C66.7812 9.04575 66.5092 9.04575 66.0331 9.07295C65.9515 9.15457 65.9515 9.44022 66.0331 9.52184C66.5364 9.50823 66.5228 9.49463 67.0125 9.49463C67.5294 9.49463 67.6518 9.50823 68.1551 9.52184C68.2367 9.44022 68.2367 9.15457 68.1551 9.07295C67.7878 9.03214 67.5566 8.95053 67.8558 8.52885L68.7128 7.29101C68.808 7.15498 68.8352 7.12778 68.9577 7.2638L69.7466 8.35201C70.2499 9.04574 70.0051 9.00494 69.5698 9.07295C69.4882 9.15457 69.4882 9.44022 69.5698 9.52184C70.0731 9.50823 70.4947 9.49463 70.9844 9.49463C71.5013 9.49463 71.6238 9.50823 72.1271 9.52184C72.2087 9.44022 72.2087 9.15457 72.1271 9.07295C71.6918 9.03214 71.3517 9.05935 70.7668 8.21599L69.5426 6.48845C69.4609 6.37963 69.5018 6.33882 69.5426 6.28441L70.6852 4.82893C71.1885 4.18961 71.5013 4.1216 72.0046 4.08079C72.0863 3.99917 72.0863 3.71352 72.0046 3.6319C71.6646 3.6455 71.4469 3.65911 71.0116 3.65911C70.59 3.65911 70.3723 3.6455 69.869 3.6319C69.7874 3.71352 69.7874 3.99917 69.869 4.08079C70.3179 4.1488 70.5356 4.1624 70.1955 4.6385L69.3113 5.87633C69.2569 5.94435 69.1889 6.03957 69.0529 5.84913L68.2231 4.62489ZM73.8901 5.65869C74.1485 4.1216 75.1007 3.99917 75.4272 3.99917C75.9441 3.99917 76.5562 4.28483 76.5562 5.42745C76.5562 5.54987 76.5018 5.61788 76.3522 5.61788L73.8901 5.65869ZM77.454 8.22959C76.9507 8.74649 76.5562 8.96413 75.7672 8.96413C75.2776 8.96413 74.7062 8.67847 74.2846 7.98474C74.0125 7.53585 73.8493 6.91013 73.8493 6.12118L77.4676 6.14839C77.6308 6.14839 77.726 6.06677 77.726 5.91714C77.726 4.77452 77.3179 3.55028 75.4272 3.55028C74.2438 3.55028 72.7067 4.67931 72.7067 6.7469C72.7067 7.50865 72.8971 8.24319 73.346 8.76009C73.8085 9.3042 74.4478 9.63066 75.4272 9.63066C76.461 9.63066 77.1955 9.15457 77.7396 8.44723C77.6988 8.3112 77.6172 8.24319 77.454 8.22959ZM79.7233 0C79.3016 0 79.0023 0.285656 79.0023 0.666529C79.0023 1.10181 79.356 1.22424 79.6009 1.26505C79.8593 1.29225 80.0905 1.37387 80.0905 1.68673C80.0905 1.97238 79.6009 2.5981 78.8935 2.77494C78.8935 2.91096 78.9207 3.00618 79.0159 3.1014C79.8321 2.95177 80.6211 2.29884 80.6211 1.34666C80.6211 0.530504 80.2674 0 79.7233 0ZM82.9762 5.65869C83.2347 4.1216 84.1868 3.99917 84.5133 3.99917C85.0302 3.99917 85.6423 4.28483 85.6423 5.42745C85.6423 5.54987 85.5879 5.61788 85.4383 5.61788L82.9762 5.65869ZM86.5401 8.22959C86.0368 8.74649 85.6423 8.96413 84.8534 8.96413C84.3637 8.96413 83.7924 8.67847 83.3707 7.98474C83.0986 7.53585 82.9354 6.91013 82.9354 6.12118L86.5537 6.14839C86.7169 6.14839 86.8122 6.06677 86.8122 5.91714C86.8122 4.77452 86.4041 3.55028 84.5133 3.55028C83.3299 3.55028 81.7928 4.67931 81.7928 6.7469C81.7928 7.50865 81.9832 8.24319 82.4321 8.76009C82.8946 9.3042 83.5339 9.63066 84.5133 9.63066C85.5471 9.63066 86.2817 9.15457 86.8258 8.44723C86.7849 8.3112 86.7033 8.24319 86.5401 8.22959ZM88.0264 7.61747C88.0808 8.284 88.1216 8.92332 88.1216 9.49463C88.2576 9.46743 88.3937 9.45382 88.4617 9.45382C88.5569 9.45382 88.6385 9.45383 88.7337 9.48103C89.101 9.57625 89.4683 9.63066 89.9716 9.63066C90.7333 9.63066 92.1344 9.26339 92.1344 7.91673C92.1344 6.99175 91.4543 6.46125 90.5429 6.10758C89.7267 5.79472 89.1826 5.59068 89.1826 4.84254C89.1826 4.28483 89.6723 3.97197 90.1348 3.97197C90.4341 3.97197 91.223 4.08079 91.3999 5.23701C91.4815 5.31863 91.7535 5.30502 91.8351 5.22341C91.8351 4.73371 91.9032 4.23042 91.9168 3.78153C91.4951 3.71352 90.8421 3.52308 90.1348 3.52308C89.1282 3.52308 88.2168 4.17601 88.2168 5.04657C88.2168 6.03957 88.6657 6.46125 89.7131 6.89653C90.8285 7.37262 91.1006 7.64468 91.1006 8.22959C91.1006 8.89612 90.4477 9.18177 89.9444 9.18177C89.4139 9.18177 89.1146 9.00494 88.9786 8.85531C88.6521 8.54245 88.5297 7.94393 88.4481 7.60387C88.3665 7.52225 88.108 7.53586 88.0264 7.61747ZM93.1656 3.65911C92.9752 3.65911 92.9208 3.82234 92.9208 3.93116V4.10799C92.9208 4.17601 92.9344 4.18961 92.9888 4.18961H93.7914V8.284C93.7914 9.24979 94.213 9.63066 94.8388 9.63066C95.4645 9.63066 96.1446 9.3314 96.6751 8.73289C96.6479 8.59686 96.5663 8.51524 96.4303 8.50164C96.0766 8.77369 95.6685 8.88252 95.3149 8.88252C94.9476 8.88252 94.866 8.47444 94.866 7.63107V4.18961H96.2806C96.4167 4.18961 96.6071 4.1352 96.6071 4.01278V3.74072C96.6071 3.68631 96.5663 3.65911 96.4983 3.65911H94.866V3.1286C94.866 2.24443 94.9204 1.70033 94.9204 1.70033C94.9204 1.60511 94.866 1.5643 94.7435 1.5643L93.9546 1.93157C93.873 1.97238 93.7506 1.99959 93.7642 2.09481C93.7914 2.40767 93.7914 2.53009 93.7914 3.65911H93.1656ZM97.4424 6.70609C97.4424 8.09356 98.381 9.63066 100.299 9.63066C102.326 9.63066 103.183 7.94393 103.183 6.58367C103.183 5.169 102.435 3.52308 100.326 3.52308C98.4898 3.52308 97.4424 4.97856 97.4424 6.70609ZM100.177 3.97197C101.346 3.97197 102.013 5.01937 102.013 7.01895C102.013 8.8145 101.183 9.18177 100.544 9.18177C99.1291 9.18177 98.6122 7.44064 98.6122 6.39323C98.6122 5.20981 99.0339 3.97197 100.177 3.97197ZM104.403 6.70609C104.403 8.09356 105.342 9.63066 107.26 9.63066C109.286 9.63066 110.143 7.94393 110.143 6.58367C110.143 5.169 109.395 3.52308 107.287 3.52308C105.451 3.52308 104.403 4.97856 104.403 6.70609ZM107.137 3.97197C108.307 3.97197 108.974 5.01937 108.974 7.01895C108.974 8.8145 108.144 9.18177 107.505 9.18177C106.09 9.18177 105.573 7.44064 105.573 6.39323C105.573 5.20981 105.995 3.97197 107.137 3.97197ZM112.136 0C111.714 0 111.415 0.285656 111.415 0.666529C111.415 1.10181 111.769 1.22424 112.013 1.26505C112.272 1.29225 112.503 1.37387 112.503 1.68673C112.503 1.97238 112.013 2.5981 111.306 2.77494C111.306 2.91096 111.333 3.00618 111.428 3.1014C112.245 2.95177 113.034 2.29884 113.034 1.34666C113.034 0.530504 112.68 0 112.136 0ZM114.26 6.70609C114.26 8.09356 115.198 9.63066 117.116 9.63066C119.143 9.63066 120 7.94393 120 6.58367C120 5.169 119.252 3.52308 117.143 3.52308C115.307 3.52308 114.26 4.97856 114.26 6.70609ZM116.994 3.97197C118.164 3.97197 118.83 5.01937 118.83 7.01895C118.83 8.8145 118 9.18177 117.361 9.18177C115.946 9.18177 115.43 7.44064 115.43 6.39323C115.43 5.20981 115.851 3.97197 116.994 3.97197Z" fill="black"/>
</svg>

<svg xmlns="http://www.w3.org/2000/svg" width="120" height="10" fill="none"><path fill="#000" d="M3.543 5.645c-.312 0-.408-.027-.353-.177l1.374-3.455h.027l1.32 3.632H3.542ZM2.074 8.42l.749-1.972c.068-.177.15-.232.476-.232h2.829l.83 2.3c.19.57-.368.516-1.007.557-.081.082-.081.367 0 .449a75.484 75.484 0 0 1 1.782-.027c.558 0 1.047.013 1.55.027.082-.082.082-.367 0-.449-.53-.04-.979-.04-1.223-.748L5.27.952C5.162.694 5.094.544 4.904.544c-.204 0-.313.123-.463.49l-3.02 7.073c-.367.844-.775.925-1.36.966-.081.082-.081.367 0 .449.504-.014.68-.027 1.21-.027.559 0 1.239.013 1.742.027.082-.082.082-.367 0-.449-.517-.027-1.156-.082-.939-.653Zm8.877-2.761c.259-1.537 1.211-1.66 1.537-1.66.517 0 1.13.286 1.13 1.428 0 .123-.055.19-.204.19l-2.463.042Zm3.564 2.57c-.503.517-.898.735-1.687.735-.49 0-1.06-.286-1.482-.98-.272-.448-.435-1.074-.435-1.863l3.618.027c.163 0 .258-.081.258-.23 0-1.143-.408-2.368-2.299-2.368-1.183 0-2.72 1.13-2.72 3.197 0 .762.19 1.496.64 2.013.462.544 1.101.87 2.08.87 1.034 0 1.769-.475 2.313-1.183-.04-.136-.123-.204-.286-.217Zm1.487-.612c.054.667.095 1.306.095 1.878.136-.028.272-.041.34-.041.095 0 .177 0 .272.027.367.095.735.15 1.238.15.762 0 2.163-.368 2.163-1.714 0-.925-.68-1.456-1.592-1.81-.816-.312-1.36-.516-1.36-1.264 0-.558.49-.871.952-.871.3 0 1.088.109 1.265 1.265.082.082.354.068.435-.014 0-.49.068-.993.082-1.441-.422-.068-1.075-.259-1.782-.259-1.007 0-1.918.653-1.918 1.524 0 .993.449 1.414 1.496 1.85 1.116.476 1.388.748 1.388 1.333 0 .666-.653.952-1.157.952-.53 0-.83-.177-.965-.327-.327-.313-.45-.911-.53-1.251-.082-.082-.34-.068-.422.013ZM21.14 3.66c-.19 0-.245.163-.245.272v.177c0 .068.014.082.068.082h.803v4.094c0 .966.421 1.347 1.047 1.347.626 0 1.306-.3 1.836-.898-.027-.136-.108-.218-.245-.231-.353.272-.761.38-1.115.38-.367 0-.449-.408-.449-1.25V4.19h1.415c.136 0 .326-.055.326-.177V3.74c0-.055-.04-.082-.108-.082H22.84v-.53c0-.885.055-1.429.055-1.429 0-.095-.055-.136-.177-.136l-.79.368c-.08.04-.203.068-.19.163.027.313.027.435.027 1.564h-.625Zm4.277 3.047c0 1.388.938 2.925 2.856 2.925 2.027 0 2.884-1.687 2.884-3.047 0-1.415-.748-3.06-2.857-3.06-1.836 0-2.883 1.455-2.883 3.182Zm2.734-2.734c1.17 0 1.836 1.047 1.836 3.047 0 1.796-.83 2.163-1.469 2.163-1.415 0-1.932-1.741-1.932-2.789 0-1.183.422-2.421 1.565-2.421Zm6.147 1.061c.53-.517.966-.803 1.387-.803.517 0 .898.327.898 1.238v2.367c0 1.116-.109 1.184-.843 1.238-.068.082-.068.367 0 .449.571-.014.843-.027 1.387-.027.558 0 .748.013 1.333.027.068-.082.068-.367 0-.449-.68-.054-.802-.122-.802-1.238V5.672c0-.19 0-.38-.014-.544.653-.72 1.183-.898 1.714-.898.517 0 .843.3.843 1.211v2.394c0 1.116-.136 1.184-.843 1.238-.068.082-.068.367 0 .449.571-.014.843-.027 1.387-.027.558 0 .817.013 1.401.027.069-.082.069-.367 0-.449-.748-.054-.87-.122-.87-1.238v-2.15c0-1.21-.231-2.162-1.428-2.162-.708 0-1.456.259-2.163 1.007-.041.04-.123.108-.15 0-.136-.558-.653-1.007-1.36-1.007-.789 0-1.388.476-1.986 1.102-.054.054-.136.19-.136 0 0-.408.068-1.034.068-1.034 0-.068-.054-.109-.163-.109-.395.15-.939.272-1.877.395-.028.081 0 .299.027.38.734.082.884.137.884.926v2.652c0 1.116-.177 1.184-.925 1.238-.082.082-.082.367 0 .449.558-.014.884-.027 1.47-.027.53 0 .76.013 1.332.027.082-.082.082-.367 0-.449-.68-.068-.802-.122-.802-1.238v-2.23c0-.286.122-.45.23-.572Zm9.703.626c.258-1.537 1.21-1.66 1.537-1.66.517 0 1.129.286 1.129 1.428 0 .123-.055.19-.204.19l-2.462.042Zm3.563 2.57c-.503.517-.897.735-1.686.735-.49 0-1.061-.286-1.483-.98-.272-.448-.435-1.074-.435-1.863l3.618.027c.163 0 .258-.081.258-.23 0-1.143-.408-2.368-2.298-2.368-1.184 0-2.72 1.13-2.72 3.197 0 .762.19 1.496.638 2.013.463.544 1.102.87 2.082.87 1.033 0 1.768-.475 2.312-1.183-.04-.136-.122-.204-.286-.217Zm3.418-3.196c.53-.517.966-.803 1.388-.803.517 0 .898.327.898 1.238v2.367c0 1.116-.11 1.184-.844 1.238-.068.082-.068.367 0 .449.572-.014.844-.027 1.388-.027.557 0 .748.013 1.333.027.068-.082.068-.367 0-.449-.68-.054-.803-.122-.803-1.238V5.672c0-.19 0-.38-.014-.544.653-.72 1.184-.898 1.714-.898.517 0 .844.3.844 1.211v2.394c0 1.116-.136 1.184-.844 1.238-.068.082-.068.367 0 .449.572-.014.844-.027 1.388-.027.558 0 .816.013 1.401.027.068-.082.068-.367 0-.449-.748-.054-.87-.122-.87-1.238v-2.15c0-1.21-.232-2.162-1.429-2.162-.707 0-1.455.259-2.163 1.007-.04.04-.122.108-.15 0-.135-.558-.652-1.007-1.36-1.007-.788 0-1.387.476-1.986 1.102-.054.054-.136.19-.136 0 0-.408.068-1.034.068-1.034 0-.068-.054-.109-.163-.109-.394.15-.938.272-1.877.395-.027.081 0 .299.027.38.735.082.884.137.884.926v2.652c0 1.116-.176 1.184-.925 1.238-.081.082-.081.367 0 .449.558-.014.885-.027 1.47-.027.53 0 .761.013 1.333.027.081-.082.081-.367 0-.449-.68-.068-.803-.122-.803-1.238v-2.23c0-.286.122-.45.231-.572Zm8.574 1.673c0 1.388.938 2.925 2.856 2.925 2.027 0 2.884-1.687 2.884-3.047 0-1.415-.748-3.06-2.856-3.06-1.837 0-2.884 1.455-2.884 3.182Zm2.734-2.734c1.17 0 1.836 1.047 1.836 3.047 0 1.796-.83 2.163-1.469 2.163-1.414 0-1.931-1.741-1.931-2.789 0-1.183.422-2.421 1.564-2.421Zm5.932.653c-.34-.517-.204-.463.395-.544.081-.082.081-.367 0-.45-.504.015-.966.028-1.374.028-.408 0-.667-.013-1.17-.027-.082.082-.082.367 0 .449.462.04.83.272 1.224.83l1.184 1.727c.027.068.081.123.013.204l-1.142 1.47c-.572.734-.844.734-1.32.761-.082.082-.082.367 0 .449.503-.014.49-.027.98-.027.516 0 .639.013 1.142.027.082-.082.082-.367 0-.449-.367-.04-.598-.122-.3-.544l.858-1.238c.095-.136.122-.163.245-.027l.789 1.088c.503.694.258.653-.177.721-.082.082-.082.367 0 .449.503-.014.925-.027 1.414-.027.517 0 .64.013 1.143.027.082-.082.082-.367 0-.449-.435-.04-.775-.014-1.36-.857l-1.224-1.728c-.082-.108-.041-.15 0-.204l1.142-1.455c.504-.64.816-.707 1.32-.748.081-.082.081-.367 0-.45-.34.015-.558.028-.993.028-.422 0-.64-.013-1.143-.027-.082.082-.082.367 0 .449.449.068.667.081.326.557l-.884 1.238c-.054.068-.122.164-.258-.027l-.83-1.224Zm5.667 1.034c.258-1.537 1.21-1.66 1.537-1.66.517 0 1.13.286 1.13 1.428 0 .123-.055.19-.205.19l-2.462.042Zm3.564 2.57c-.503.517-.898.735-1.687.735-.49 0-1.06-.286-1.482-.98-.272-.448-.436-1.074-.436-1.863l3.619.027c.163 0 .258-.081.258-.23 0-1.143-.408-2.368-2.299-2.368-1.183 0-2.72 1.13-2.72 3.197 0 .762.19 1.496.639 2.013.462.544 1.102.87 2.081.87 1.034 0 1.768-.475 2.313-1.183-.041-.136-.123-.204-.286-.217ZM79.724 0c-.422 0-.722.286-.722.667 0 .435.354.557.599.598.258.027.49.109.49.422 0 .285-.49.911-1.197 1.088 0 .136.027.231.122.326.816-.15 1.605-.802 1.605-1.754C80.621.53 80.267 0 79.723 0Zm3.252 5.659c.259-1.537 1.21-1.66 1.537-1.66.517 0 1.13.286 1.13 1.428 0 .123-.055.19-.205.19l-2.462.042Zm3.564 2.57c-.503.517-.898.735-1.687.735-.49 0-1.06-.286-1.482-.98-.272-.448-.436-1.074-.436-1.863l3.619.027c.163 0 .258-.081.258-.23 0-1.143-.408-2.368-2.299-2.368-1.183 0-2.72 1.13-2.72 3.197 0 .762.19 1.496.64 2.013.462.544 1.1.87 2.08.87 1.034 0 1.769-.475 2.313-1.183-.041-.136-.123-.204-.286-.217Zm1.486-.612c.055.667.096 1.306.096 1.878.136-.028.272-.041.34-.041.095 0 .176 0 .272.027.367.095.734.15 1.238.15.761 0 2.162-.368 2.162-1.714 0-.925-.68-1.456-1.591-1.81-.816-.312-1.36-.516-1.36-1.264 0-.558.49-.871.952-.871.3 0 1.088.109 1.265 1.265.081.082.353.068.435-.014 0-.49.068-.993.082-1.441-.422-.068-1.075-.259-1.782-.259-1.007 0-1.918.653-1.918 1.524 0 .993.449 1.414 1.496 1.85 1.116.476 1.388.748 1.388 1.333 0 .666-.653.952-1.157.952-.53 0-.83-.177-.965-.327-.327-.313-.45-.911-.53-1.251-.082-.082-.341-.068-.423.013Zm5.14-3.958c-.19 0-.245.163-.245.272v.177c0 .068.013.082.068.082h.802v4.094c0 .966.422 1.347 1.048 1.347.626 0 1.306-.3 1.836-.898-.027-.136-.109-.218-.245-.231-.353.272-.762.38-1.115.38-.367 0-.449-.408-.449-1.25V4.19h1.415c.136 0 .326-.055.326-.177V3.74c0-.055-.04-.082-.109-.082h-1.632v-.53c0-.885.054-1.429.054-1.429 0-.095-.054-.136-.177-.136l-.788.368c-.082.04-.204.068-.19.163.026.313.026.435.026 1.564h-.625Zm4.276 3.047c0 1.388.939 2.925 2.857 2.925 2.027 0 2.884-1.687 2.884-3.047 0-1.415-.748-3.06-2.857-3.06-1.836 0-2.884 1.455-2.884 3.182Zm2.735-2.734c1.169 0 1.836 1.047 1.836 3.047 0 1.796-.83 2.163-1.469 2.163-1.415 0-1.932-1.741-1.932-2.789 0-1.183.422-2.421 1.565-2.421Zm4.226 2.734c0 1.388.939 2.925 2.857 2.925 2.026 0 2.883-1.687 2.883-3.047 0-1.415-.748-3.06-2.856-3.06-1.836 0-2.884 1.455-2.884 3.182Zm2.734-2.734c1.17 0 1.837 1.047 1.837 3.047 0 1.796-.83 2.163-1.469 2.163-1.415 0-1.932-1.741-1.932-2.789 0-1.183.422-2.421 1.564-2.421ZM112.136 0c-.422 0-.721.286-.721.667 0 .435.354.557.598.598.259.027.49.109.49.422 0 .285-.49.911-1.197 1.088 0 .136.027.231.122.326.817-.15 1.606-.802 1.606-1.754 0-.816-.354-1.347-.898-1.347Zm2.124 6.706c0 1.388.938 2.925 2.856 2.925 2.027 0 2.884-1.687 2.884-3.047 0-1.415-.748-3.06-2.857-3.06-1.836 0-2.883 1.455-2.883 3.182Zm2.734-2.734c1.17 0 1.836 1.047 1.836 3.047 0 1.796-.83 2.163-1.469 2.163-1.415 0-1.931-1.741-1.931-2.789 0-1.183.421-2.421 1.564-2.421Z"/></svg>
